img/Combined-Shape-3.svg

<svg width="128" height="78" viewBox="0 0 128 78" fill="none" xmlns="http://www.w3.org/2000/svg">
<path fill-rule="evenodd" clip-rule="evenodd" d="M36.6457 63.4436C37.095 63.4436 37.5215 63.5025 37.9271 63.6223C38.3345 63.7402 38.7305 63.9113 39.1171 64.1357V66.8488C38.8315 66.5998 38.5173 66.3887 38.1803 66.2119C37.8452 66.037 37.4815 65.9514 37.095 65.9514C36.6571 65.9514 36.3144 66.0731 36.065 66.3165C35.8137 66.5579 35.6899 66.9002 35.6899 67.3356C35.6899 67.7234 35.7946 68.0543 36.0098 68.3376C36.2211 68.6171 36.4839 68.8851 36.7961 69.1418C37.1084 69.3985 37.4473 69.6514 37.8166 69.908C38.1841 70.1647 38.5249 70.4594 38.8372 70.7978C39.1494 71.1344 39.4122 71.5279 39.6235 71.9748C39.8368 72.4235 39.9415 72.9672 39.9415 73.6042C39.9415 74.2259 39.8558 74.8077 39.6787 75.342C39.5055 75.88 39.2446 76.344 38.8924 76.7375C38.544 77.1292 38.1156 77.4391 37.6091 77.6635C37.1046 77.8878 36.5258 78 35.8765 78C35.4767 78 35.0597 77.9411 34.6218 77.8213C34.1858 77.7034 33.8012 77.5266 33.4775 77.2889V74.6309C33.8012 74.8571 34.1344 75.0378 34.4733 75.1747C34.8084 75.3116 35.1835 75.38 35.5966 75.38C36.046 75.38 36.4249 75.2431 36.739 74.9693C37.0513 74.6955 37.2074 74.3191 37.2074 73.8456C37.2074 73.5719 37.156 73.3399 37.0551 73.146C36.958 72.952 36.8285 72.7771 36.6724 72.6212C36.5162 72.4653 36.3411 72.3208 36.1488 72.1896C35.9546 72.0603 35.7585 71.9253 35.5566 71.7884C35.1587 71.5127 34.797 71.2409 34.4733 70.9652C34.1458 70.6914 33.8716 70.3891 33.647 70.0582C33.4223 69.7255 33.249 69.3624 33.1329 68.9631C33.013 68.5657 32.9539 68.1094 32.9539 67.5979C32.9539 67.0352 33.0339 66.5066 33.1976 66.0066C33.3595 65.5084 33.5937 65.0692 33.9002 64.687C34.2048 64.3068 34.5894 64.0064 35.054 63.7801C35.5148 63.5558 36.046 63.4436 36.6457 63.4436ZM100.984 63.4436C101.434 63.4436 101.86 63.5025 102.266 63.6223C102.671 63.7402 103.069 63.9113 103.456 64.1357V66.8488C103.168 66.5998 102.858 66.3887 102.519 66.2119C102.182 66.037 101.818 65.9514 101.434 65.9514C100.994 65.9514 100.653 66.0731 100.402 66.3165C100.152 66.5579 100.029 66.9002 100.029 67.3356C100.029 67.7234 100.133 68.0543 100.347 68.3376C100.558 68.6171 100.821 68.8851 101.133 69.1418C101.445 69.3985 101.784 69.6514 102.153 69.908C102.523 70.1647 102.862 70.4594 103.176 70.7978C103.488 71.1344 103.749 71.5279 103.962 71.9748C104.173 72.4235 104.282 72.9672 104.282 73.6042C104.282 74.2259 104.193 74.8077 104.017 75.342C103.844 75.88 103.581 76.344 103.231 76.7375C102.883 77.1292 102.454 77.4391 101.948 77.6635C101.441 77.8878 100.864 78 100.215 78C99.8153 78 99.3964 77.9411 98.9585 77.8213C98.5244 77.7034 98.1417 77.5266 97.8161 77.2889V74.6309C98.1417 74.8571 98.4711 75.0378 98.81 75.1747C99.147 75.3116 99.5221 75.38 99.9352 75.38C100.383 75.38 100.763 75.2431 101.076 74.9693C101.388 74.6955 101.544 74.3191 101.544 73.8456C101.544 73.5719 101.495 73.3399 101.396 73.146C101.297 72.952 101.165 72.7771 101.011 72.6212C100.855 72.4653 100.68 72.3208 100.487 72.1896C100.293 72.0603 100.097 71.9253 99.8972 71.7884C99.4954 71.5127 99.1356 71.2409 98.81 70.9652C98.4844 70.6914 98.2103 70.3891 97.9856 70.0582C97.759 69.7255 97.5877 69.3624 97.4715 68.9631C97.3516 68.5657 97.2925 68.1094 97.2925 67.5979C97.2925 67.0352 97.3725 66.5066 97.5363 66.0066C97.6981 65.5084 97.9323 65.0692 98.2388 64.687C98.5434 64.3068 98.9281 64.0064 99.3907 63.7801C99.8534 63.5558 100.383 63.4436 100.984 63.4436ZM49.0866 63.4445C50.1604 63.4445 51.0457 63.7526 51.7464 64.3705C52.4452 64.9884 52.9459 65.7965 53.2448 66.7927L50.526 67.8404C50.4898 67.6673 50.446 67.4734 50.3965 67.2624C50.3489 67.0494 50.2689 66.8517 50.1623 66.6711C50.0557 66.4904 49.9186 66.3383 49.751 66.2128C49.5816 66.0893 49.3664 66.0265 49.1037 66.0265C48.7915 66.0151 48.5249 66.0893 48.2964 66.2509C48.0737 66.4125 47.8833 66.6311 47.7271 66.9049C47.571 67.1806 47.4473 67.4924 47.3502 67.8404C47.2588 68.1902 47.1864 68.5381 47.1369 68.888C47.0874 69.2378 47.055 69.5744 47.0417 69.8976C47.0303 70.2246 47.0246 70.4965 47.0246 70.7227C47.0246 71.084 47.0398 71.5346 47.0722 72.0708C47.1026 72.6069 47.1864 73.1241 47.3254 73.6222C47.4625 74.1204 47.6757 74.5463 47.9708 74.8942C48.2641 75.2421 48.6677 75.419 49.1799 75.419C49.5283 75.419 49.8139 75.3163 50.0328 75.1091C50.2499 74.9037 50.4193 74.6508 50.5374 74.3523C50.6573 74.0519 50.7354 73.7382 50.7716 73.4074C50.8097 73.0766 50.8287 72.7857 50.8287 72.5366H49.0466V69.9166H53.6199V71.0212C53.6199 71.7704 53.5609 72.5556 53.4428 73.3789C53.3229 74.2021 53.102 74.9551 52.7764 75.6338C52.4509 76.3145 51.992 76.8773 51.398 77.326C50.8058 77.7766 50.0347 77.999 49.0866 77.999C48.4487 77.999 47.8833 77.8926 47.3901 77.6815C46.897 77.4705 46.4629 77.1834 46.0878 76.8202C45.7127 76.459 45.3986 76.0426 45.1416 75.5673C44.8845 75.0938 44.6751 74.59 44.5133 74.0519C44.3514 73.5158 44.2334 72.9701 44.1572 72.4149C44.083 71.8597 44.0449 71.3198 44.0449 70.7969C44.0449 69.9869 44.1191 69.1485 44.2715 68.2815C44.42 67.4145 44.6865 66.6216 45.0654 65.9048C45.4462 65.188 45.9641 64.5967 46.6133 64.1347C47.2626 63.6746 48.0851 63.4445 49.0866 63.4445ZM114.509 63.6687V66.2868H111.68V69.3574H114.174V71.9755H111.68V75.1564H114.548V77.7764H108.889V63.6687H114.509ZM2.80834 63.6704C3.25768 63.6704 3.76794 63.7008 4.33722 63.7617C4.9046 63.8263 5.44533 63.986 5.95559 64.2484C6.46966 64.5108 6.89995 64.912 7.24838 65.4557C7.5987 65.9976 7.77387 66.7486 7.77387 67.7088C7.77387 68.4959 7.61584 69.2051 7.29788 69.8345C6.97801 70.4638 6.46966 70.9714 5.769 71.3593L8.22511 77.7762H5.28349L2.82738 71.2642H2.7893V77.7762H0V63.6704H2.80834ZM23.4922 63.6693V69.974H23.5284L25.855 63.6693H28.7014L26.0968 70.1794L29.0384 77.777H26.0968L23.5284 70.59H23.4922V77.777H20.701V63.6693H23.4922ZM60.9071 63.6704C61.3564 63.6704 61.8648 63.7008 62.436 63.7617C63.0034 63.8263 63.5422 63.986 64.0544 64.2484C64.5665 64.5108 64.9987 64.912 65.3471 65.4557C65.6975 65.9976 65.8726 66.7486 65.8726 67.7088C65.8726 68.4959 65.7127 69.2051 65.3947 69.8345C65.0768 70.4638 64.5665 70.9714 63.8678 71.3593L66.322 77.7762H63.3823L60.9262 71.2642H60.8881V77.7762H58.0988V63.6704H60.9071ZM76.4019 63.6702L79.7929 77.776H76.8132L76.2896 75.3994H73.4603L72.9538 77.776H70.1817L73.4603 63.6702H76.4019ZM121.911 63.6697L125.397 72.1818L125.433 72.1457C125.344 71.8073 125.285 71.4574 125.254 71.0962C125.224 70.7349 125.207 70.3737 125.207 70.0124V63.6697H128V77.7755H125.359L121.911 69.2633L121.873 69.3013L122.004 70.7216L122.023 71.3015V77.7755H119.23V63.6697H121.911ZM15.7178 63.67V77.7758H12.9247V63.67H15.7178ZM86.595 63.6697L90.0811 72.1818L90.1173 72.1457C90.0278 71.8073 89.9688 71.4574 89.9383 71.0962C89.906 70.7349 89.8907 70.3737 89.8907 70.0124V63.6697H92.6838V77.7755H90.043L86.595 69.2633L86.5569 69.3013L86.6883 70.7216L86.7073 71.3015V77.7755H83.9142V63.6697H86.595ZM74.8464 67.2979H74.8102L74.5075 69.4312L73.9115 73.192H75.8764L75.1643 69.4312L74.8464 67.2979ZM3.36744 65.9687L3.16438 65.971H2.7893V69.7299L3.27672 69.7489C3.91454 69.7489 4.36959 69.5588 4.64566 69.1785C4.91983 68.7982 5.05692 68.3153 5.05692 67.7278C5.05692 67.4787 5.02645 67.243 4.96362 67.0167C4.90079 66.7924 4.79417 66.6003 4.64566 66.4387C4.49525 66.2752 4.29914 66.1535 4.05353 66.0718C3.81173 65.9919 3.51281 65.9577 3.16438 65.971L3.36744 65.9687ZM61.4672 65.9687L61.2651 65.971H60.8881V69.7299L61.3755 69.7489C62.0133 69.7489 62.4684 69.5588 62.7444 69.1785C63.0186 68.7982 63.1557 68.3153 63.1557 67.7278C63.1557 67.4787 63.1252 67.243 63.0624 67.0167C62.9996 66.7924 62.8929 66.6003 62.7444 66.4387C62.594 66.2752 62.396 66.1535 62.1523 66.0718C61.9105 65.9919 61.6116 65.9577 61.2651 65.971L61.4672 65.9687ZM73.0662 59.8334C73.4546 59.8334 73.7783 59.9741 74.041 60.2536C74.3038 60.535 74.4332 60.8677 74.4332 61.2556C74.4332 61.6301 74.2961 61.9495 74.0239 62.2195C73.7478 62.4876 73.4165 62.6207 73.0281 62.6207C72.6549 62.6207 72.3313 62.4876 72.0552 62.2195C71.781 61.9495 71.6439 61.6301 71.6439 61.2556C71.6439 60.8563 71.781 60.5179 72.0552 60.2441C72.3313 59.9703 72.6683 59.8334 73.0662 59.8334ZM76.9655 59.8334C77.352 59.8334 77.6776 59.9741 77.9365 60.2536C78.2012 60.535 78.3306 60.8677 78.3306 61.2556C78.3306 61.6301 78.1936 61.9495 77.9175 62.2195C77.6433 62.4876 77.3139 62.6207 76.9274 62.6207C76.5523 62.6207 76.2268 62.4876 75.9507 62.2195C75.6784 61.9495 75.5394 61.6301 75.5394 61.2556C75.5394 60.8563 75.6784 60.5179 75.9507 60.2441C76.2268 59.9703 76.5657 59.8334 76.9655 59.8334ZM65.488 0C84.4819 0 99.8107 15.2181 99.9179 34.1836C99.9421 38.5832 99.1386 42.7908 97.6554 46.66C97.2804 47.6487 96.8558 48.6145 96.3931 49.5538L91.4238 45.6523L88.2613 48.2153C88.0043 48.4244 87.673 48.5195 87.3417 48.4814L82.6351 47.932C82.6123 47.9282 82.5894 47.9263 82.5666 47.9244C82.3209 47.911 82.0772 47.9681 81.8678 48.0936C81.8526 48.1012 81.8354 48.1126 81.8221 48.1221L77.8581 50.6908C77.2869 51.0596 76.5196 50.898 76.1521 50.3238L73.9702 46.9414L71.9729 48.6183L77.1726 53.3374C77.1803 53.345 77.186 53.3507 77.1936 53.3583C77.799 53.9287 77.8371 54.8793 77.2755 55.4954C76.71 56.119 75.7447 56.1665 75.1183 55.6018C75.1164 55.6018 75.1164 55.6018 75.1164 55.5999L73.2353 53.8926L70.128 55.4231C70.1242 55.425 70.1185 55.4288 70.1128 55.4307C69.633 55.6589 69.0637 55.5562 68.6962 55.174L68.6867 55.1645L67.0188 53.3944C66.6666 53.0218 66.1202 52.9077 65.648 53.1035L62.0819 54.5865C61.623 54.7767 61.0937 54.6721 60.7396 54.3223L57.4286 51.033C57.0725 50.6774 56.5318 50.5767 56.0672 50.7763L52.2688 52.4305C51.8576 52.6073 51.3797 52.5483 51.0237 52.2765L47.8974 49.8656C47.4461 49.5139 46.8121 49.5215 46.3666 49.8808L43.3355 52.3335C42.8138 52.7537 42.0541 52.6833 41.6219 52.1776C41.6124 52.1681 41.6067 52.1605 41.601 52.151L38.5889 48.4301L35.3369 50.9855C34.8324 50.0785 34.3697 49.145 33.9489 48.1886C32.0907 43.9639 31.0606 39.2924 31.0606 34.3813C31.0606 15.393 46.4751 0 65.488 0ZM53.9405 36.3796L40.9936 46.544L42.0541 47.854C42.0598 47.8578 42.0655 47.8654 42.0693 47.8711C42.4977 48.3807 43.2555 48.4586 43.7791 48.0441C43.781 48.0422 43.7848 48.0403 43.7886 48.0365L46.3247 45.9869C46.7664 45.6276 47.4004 45.6219 47.8536 45.9698L51.4597 48.7552C51.8176 49.029 52.2955 49.088 52.7068 48.9092L56.7527 47.1486C57.2153 46.9471 57.7542 47.0498 58.1121 47.4053L61.4478 50.7174C61.802 51.0691 62.3313 51.1718 62.7901 50.9817L66.4229 49.4701C66.8932 49.2762 67.4377 49.3903 67.788 49.7572L67.7937 49.7629L69.3607 51.4247C69.3664 51.4304 69.3683 51.4342 69.374 51.438C69.7472 51.8201 70.3222 51.9209 70.802 51.6851L60.5911 42.4163L57.9465 40.0168L53.9405 36.3796ZM83.2006 39.1898L76.3311 44.9583L77.0622 46.0934C77.4297 46.6657 78.1951 46.8311 78.7682 46.4585L81.0815 44.9583C81.0929 44.9526 81.1062 44.9431 81.1157 44.9374C81.3309 44.8081 81.5784 44.7492 81.824 44.7625L81.8983 44.7682L86.4183 45.2987C86.7477 45.3386 87.0789 45.2397 87.3379 45.0325L88.962 43.7168L83.2006 39.1898ZM65.488 24.9718C60.3607 24.9718 56.1739 29.0862 56.0691 34.1836L60.2407 37.9691L62.415 39.9427L66.5809 43.7263C71.2646 43.1844 74.9126 39.2012 74.9126 34.3813C74.9126 29.1927 70.6839 24.9718 65.488 24.9718ZM53.4626 32.8546H47.4214C46.5779 32.8546 45.8906 33.5391 45.8906 34.3813C45.8906 35.2255 46.5779 35.9081 47.4214 35.9081H49.5919L53.4626 32.8717V32.8546ZM83.5566 32.8546H79.0461C78.2008 32.8546 77.5173 33.5391 77.5173 34.3813C77.5173 35.2255 78.2008 35.9081 79.0461 35.9081H83.5566C83.9793 35.9081 84.362 35.737 84.6381 35.4613C84.916 35.1856 85.0855 34.8015 85.0855 34.3813C85.0855 33.5391 84.402 32.8546 83.5566 32.8546ZM79.3451 20.5436C78.7472 19.9466 77.7781 19.9466 77.1841 20.5436L73.9911 23.7283C73.3971 24.3253 73.3971 25.2912 73.9911 25.8882C74.5909 26.4852 75.5581 26.4852 76.1559 25.8901L79.347 22.7016C79.9429 22.1065 79.9429 21.1406 79.347 20.5455L79.3451 20.5436ZM53.7958 20.5455C53.198 19.9466 52.2308 19.9466 51.6329 20.5436C51.037 21.1406 51.037 22.1065 51.631 22.7016L54.8221 25.8882C55.1191 26.1867 55.5132 26.335 55.9035 26.335C56.2938 26.335 56.6841 26.1867 56.985 25.8882C57.5809 25.2912 57.5809 24.3253 56.985 23.7283L53.7958 20.5455ZM65.488 14.8131C64.6446 14.8131 63.9592 15.4957 63.9592 16.3398V20.8421C63.9592 21.2661 64.1324 21.6464 64.4085 21.9221C64.6846 22.1997 65.0654 22.3708 65.488 22.3708C66.3334 22.3708 67.0169 21.6863 67.0169 20.8421V16.3398C67.0169 15.4957 66.3334 14.8131 65.488 14.8131Z" fill="white"/>
</svg>

<svg width="128" height="78" fill="none" xmlns="http://www.w3.org/2000/svg"><path fill-rule="evenodd" clip-rule="evenodd" d="M36.646 63.444c.449 0 .876.058 1.281.178a5.3 5.3 0 0 1 1.19.514v2.713c-.285-.25-.6-.46-.937-.637a2.315 2.315 0 0 0-1.085-.26c-.438 0-.78.121-1.03.365-.251.24-.375.583-.375 1.019 0 .387.105.718.32 1.002.211.28.474.547.786.804.312.257.651.51 1.02.766.368.257.709.551 1.021.89.312.336.575.73.786 1.177.214.449.319.992.319 1.63 0 .62-.086 1.203-.263 1.737a3.7 3.7 0 0 1-2.07 2.322c-.504.224-1.083.336-1.733.336-.4 0-.816-.059-1.254-.179a3.43 3.43 0 0 1-1.145-.532V74.63c.324.226.657.407.996.544.335.137.71.205 1.124.205.449 0 .828-.137 1.142-.41.312-.275.468-.65.468-1.124 0-.274-.051-.506-.152-.7a2.019 2.019 0 0 0-.383-.525 3.66 3.66 0 0 0-.523-.431c-.194-.13-.39-.265-.592-.402-.398-.275-.76-.547-1.084-.823a4.402 4.402 0 0 1-.826-.907 3.877 3.877 0 0 1-.514-1.095 4.738 4.738 0 0 1-.18-1.365c0-.563.08-1.091.245-1.591.161-.499.396-.938.702-1.32.305-.38.69-.68 1.154-.907.46-.224.992-.336 1.592-.336Zm64.338 0a4.5 4.5 0 0 1 1.282.178c.405.118.803.29 1.19.514v2.713a4.858 4.858 0 0 0-.937-.637 2.326 2.326 0 0 0-1.085-.26c-.44 0-.781.121-1.032.365-.25.24-.373.583-.373 1.019 0 .387.104.718.318 1.002.211.28.474.547.786.804.312.257.651.51 1.02.766.37.257.709.551 1.023.89.312.336.573.73.786 1.177.211.449.32.992.32 1.63 0 .62-.089 1.203-.265 1.737a3.7 3.7 0 0 1-2.069 2.322c-.507.224-1.084.336-1.733.336-.4 0-.819-.059-1.257-.179a3.455 3.455 0 0 1-1.142-.532V74.63c.326.226.655.407.994.544.337.137.712.205 1.125.205.448 0 .828-.137 1.141-.41.312-.275.468-.65.468-1.124a1.52 1.52 0 0 0-.148-.7 2.124 2.124 0 0 0-.385-.525 3.614 3.614 0 0 0-.524-.431c-.194-.13-.39-.265-.59-.402a13.47 13.47 0 0 1-1.087-.823 4.449 4.449 0 0 1-.824-.907 3.828 3.828 0 0 1-.514-1.095 4.738 4.738 0 0 1-.18-1.365c0-.563.08-1.091.244-1.591a4.12 4.12 0 0 1 .703-1.32c.304-.38.69-.68 1.152-.907.462-.224.992-.336 1.593-.336Zm-51.897 0c1.073 0 1.959.309 2.66.927.698.617 1.199 1.425 1.498 2.422l-2.719 1.047c-.036-.173-.08-.367-.13-.578a2.031 2.031 0 0 0-.234-.59 1.552 1.552 0 0 0-.411-.46c-.17-.123-.385-.186-.647-.186a1.272 1.272 0 0 0-.808.225c-.222.161-.413.38-.569.654-.156.276-.28.587-.377.935-.091.35-.164.698-.213 1.048-.05.35-.082.686-.095 1.01-.012.327-.017.599-.017.825 0 .361.015.812.047 1.348a7.29 7.29 0 0 0 .253 1.551c.137.498.35.924.646 1.272.293.348.697.525 1.209.525.348 0 .634-.103.853-.31.217-.205.386-.458.504-.757.12-.3.198-.614.235-.945.038-.33.057-.621.057-.87h-1.782v-2.62h4.573v1.104c0 .75-.06 1.535-.177 2.358a7.776 7.776 0 0 1-.667 2.255 4.543 4.543 0 0 1-1.378 1.692c-.592.45-1.363.673-2.311.673-.638 0-1.204-.106-1.697-.317a4.267 4.267 0 0 1-1.302-.862 5.07 5.07 0 0 1-.946-1.253 7.975 7.975 0 0 1-.629-1.515 10.671 10.671 0 0 1-.356-1.637 12.225 12.225 0 0 1-.112-1.618c0-.81.074-1.648.227-2.516.148-.867.415-1.66.793-2.376a5.054 5.054 0 0 1 1.548-1.77c.65-.46 1.472-.69 2.474-.69Zm65.422.225v2.618h-2.829v3.07h2.494v2.618h-2.494v3.181h2.868v2.62h-5.659V63.67h5.62Zm-111.7.001c.449 0 .959.03 1.528.092a4.663 4.663 0 0 1 1.619.486c.514.263.944.664 1.292 1.208.35.542.526 1.293.526 2.253 0 .787-.158 1.496-.476 2.126-.32.629-.828 1.136-1.529 1.524l2.456 6.417H5.283l-2.456-6.512H2.79v6.512H0V63.67h2.808Zm20.683 0v6.304h.036l2.327-6.305h2.846l-2.604 6.51 2.941 7.598h-2.941l-2.569-7.187h-.036v7.187h-2.791V63.669h2.791Zm37.415 0c.45 0 .958.03 1.529.092a4.675 4.675 0 0 1 1.618.486c.513.263.945.664 1.293 1.208.35.542.526 1.293.526 2.253 0 .787-.16 1.496-.478 2.126-.318.629-.828 1.136-1.527 1.524l2.454 6.417h-2.94l-2.456-6.512h-.038v6.512h-2.79V63.67h2.81Zm15.495 0 3.39 14.106h-2.979l-.523-2.377h-2.83l-.506 2.377h-2.772L73.46 63.67h2.942Zm45.509 0 3.486 8.512.036-.036a6.204 6.204 0 0 1-.179-1.05c-.03-.361-.047-.722-.047-1.084V63.67H128v14.105h-2.641l-3.448-8.512-.038.038.131 1.42.019.58v6.474h-2.793V63.67h2.681Zm-106.193 0v14.106h-2.793V63.67h2.793Zm70.877 0 3.486 8.512.036-.036a6.106 6.106 0 0 1-.179-1.05 12.163 12.163 0 0 1-.047-1.084V63.67h2.793v14.105h-2.641l-3.448-8.512-.038.038.131 1.42.02.58v6.474h-2.794V63.67h2.681Zm-11.749 3.628h-.036l-.303 2.133-.596 3.761h1.965l-.712-3.76-.318-2.134Zm-71.479-1.33-.203.003H2.79v3.759l.488.019c.638 0 1.093-.19 1.369-.57.274-.38.41-.864.41-1.451 0-.25-.03-.485-.092-.711a1.397 1.397 0 0 0-.318-.578 1.372 1.372 0 0 0-.592-.367 2.555 2.555 0 0 0-.89-.101l.203-.002Zm58.1 0-.202.003h-.377v3.759l.488.019c.637 0 1.092-.19 1.368-.57.275-.38.412-.864.412-1.451 0-.25-.03-.485-.094-.711a1.397 1.397 0 0 0-.318-.578 1.383 1.383 0 0 0-.592-.367 2.55 2.55 0 0 0-.887-.101l.202-.002Zm11.6-6.135c.388 0 .711.141.974.42.263.282.392.615.392 1.003 0 .374-.137.694-.41.963a1.376 1.376 0 0 1-.995.402 1.35 1.35 0 0 1-.973-.402 1.303 1.303 0 0 1-.411-.963c0-.4.137-.738.411-1.012.276-.274.613-.41 1.011-.41Zm3.899 0c.386 0 .712.141.97.42.265.282.395.615.395 1.003 0 .374-.137.694-.413.963a1.363 1.363 0 0 1-.99.402c-.376 0-.701-.133-.977-.402a1.31 1.31 0 0 1-.412-.963c0-.4.14-.738.412-1.012.276-.274.615-.41 1.015-.41ZM65.488 0c18.994 0 34.323 15.218 34.43 34.184a34.254 34.254 0 0 1-3.525 15.37l-4.97-3.902-3.162 2.563c-.257.21-.588.304-.92.266l-4.706-.549c-.023-.004-.046-.006-.068-.008a1.227 1.227 0 0 0-.745.198l-3.964 2.569a1.233 1.233 0 0 1-1.706-.367L73.97 46.94l-1.997 1.677 5.2 4.72.02.02c.606.57.644 1.521.082 2.137a1.53 1.53 0 0 1-2.157.107c-.002 0-.002 0-.002-.002l-1.88-1.707-3.108 1.53-.015.008a1.23 1.23 0 0 1-1.417-.257l-.01-.01-1.667-1.77a1.236 1.236 0 0 0-1.371-.29l-3.566 1.483c-.459.19-.988.085-1.342-.265l-3.311-3.289a1.237 1.237 0 0 0-1.362-.257L52.27 52.43c-.411.177-.89.118-1.245-.154l-3.127-2.41a1.232 1.232 0 0 0-1.53.015l-3.031 2.453a1.235 1.235 0 0 1-1.735-.183l-3.012-3.72-3.252 2.555a33.543 33.543 0 0 1-1.388-2.797A34.211 34.211 0 0 1 31.06 34.38C31.06 15.393 46.475 0 65.488 0ZM53.941 36.38 40.993 46.544l1.06 1.31a1.234 1.234 0 0 0 1.725.19l.01-.008 2.536-2.05a1.234 1.234 0 0 1 1.529-.016l3.606 2.785a1.24 1.24 0 0 0 1.247.154l4.046-1.76a1.232 1.232 0 0 1 1.36.256l3.335 3.312c.354.352.883.455 1.342.265l3.633-1.512a1.239 1.239 0 0 1 1.365.287l.006.006 1.567 1.662c.005.005.007.01.013.013.373.382.948.483 1.428.247l-10.21-9.269-2.645-2.4-4.007-3.636Zm29.26 2.81-6.87 5.768.731 1.135a1.23 1.23 0 0 0 1.706.365l2.314-1.5.034-.02c.215-.13.462-.189.708-.175l.074.005 4.52.53c.33.04.66-.058.92-.266l1.624-1.315-5.761-4.527ZM65.488 24.972c-5.127 0-9.314 4.114-9.419 9.212l4.172 3.785 2.174 1.974 4.166 3.783c4.684-.542 8.332-4.525 8.332-9.345 0-5.188-4.23-9.41-9.425-9.41Zm-12.025 7.883H47.42a1.53 1.53 0 0 0-1.53 1.526 1.53 1.53 0 0 0 1.53 1.527h2.17l3.872-3.036v-.017Zm30.094 0h-4.51a1.528 1.528 0 1 0 0 3.053h4.51a1.526 1.526 0 1 0 0-3.053Zm-4.212-12.311a1.528 1.528 0 0 0-2.16 0l-3.194 3.184a1.532 1.532 0 0 0 0 2.16c.6.597 1.567.597 2.165.002l3.191-3.188a1.524 1.524 0 0 0 0-2.157l-.002-.001Zm-25.55.002a1.528 1.528 0 0 0-2.164 2.156l3.191 3.186a1.53 1.53 0 0 0 2.163 0 1.528 1.528 0 0 0 0-2.16l-3.19-3.183Zm11.693-5.733c-.843 0-1.529.683-1.529 1.527v4.502c0 .424.173.804.45 1.08a1.528 1.528 0 0 0 2.608-1.08V16.34c0-.844-.684-1.527-1.529-1.527Z" fill="#fff"/></svg>
